svgs/regular/walkie-talkie.svg

<svg xmlns="http://www.w3.org/2000/svg" viewBox="0 0 384 512"><!--! Font Awesome Pro 6.0.0 by @fontawesome - https://fontawesome.com License - https://fontawesome.com/license (Commercial License) Copyright 2022 Fonticons, Inc. --><path d="M352 96h-32V80C320 71.16 312.8 64 304 64h-32C263.2 64 256 71.16 256 80V96h-32V80C224 71.16 216.8 64 208 64h-32C167.2 64 160 71.16 160 80V96H112V23.1C112 10.75 101.3 0 88 0S64 10.75 64 23.1V96H32C14.4 96 0 110.4 0 128v178.7c0 8.489 3.368 16.62 9.371 22.62L32 352v112C32 490.5 53.49 512 80 512h224c26.51 0 48-21.49 48-48V352l22.63-22.63C380.6 323.4 384 315.2 384 306.7V128C384 110.4 369.6 96 352 96zM336 300.1l-32 32V464h-224v-131.9l-32-32V144h288V300.1zM128 240h128c8.875 0 16-7.125 16-16V208C272 199.1 264.9 192 256 192H128C119.1 192 112 199.1 112 208V224C112 232.9 119.1 240 128 240zM128 320h128c8.875 0 16-7.125 16-16V288c0-8.875-7.125-16-16-16H128C119.1 272 112 279.1 112 288v16C112 312.9 119.1 320 128 320z"/></svg>

<svg xmlns="http://www.w3.org/2000/svg" viewBox="0 0 384 512"><!-- Font Awesome Pro 5.15.3 by @fontawesome - https://fontawesome.com License - https://fontawesome.com/license (Commercial License) --><path d="M352 96h-32V80a16 16 0 0 0-16-16h-32a16 16 0 0 0-16 16v16h-32V80a16 16 0 0 0-16-16h-32a16 16 0 0 0-16 16v16h-48V16A16 16 0 0 0 96 0H80a16 16 0 0 0-16 16v80H32a32.09 32.09 0 0 0-32 32v178.74a32 32 0 0 0 9.37 22.63L32 352v112a48 48 0 0 0 48 48h224a48 48 0 0 0 48-48V352l22.63-22.63a32 32 0 0 0 9.37-22.63V128a32.09 32.09 0 0 0-32-32zm-16 204.12l-17.94 17.94L304 332.12V464H80V332.12l-14.06-14.06L48 300.12V144h288zM128 240h128a16 16 0 0 0 16-16v-16a16 16 0 0 0-16-16H128a16 16 0 0 0-16 16v16a16 16 0 0 0 16 16zm0 80h128a16 16 0 0 0 16-16v-16a16 16 0 0 0-16-16H128a16 16 0 0 0-16 16v16a16 16 0 0 0 16 16z"/></svg>
